X: 7824
T: Comet, The
R: slip jig
M: 9/8
K: Gdorian
D|:GAB AGA d=Bc|AGB AGE F2D|GAB AGA d=Bc|1 AGB AG^F G2D:|2 AGB AG^F G2g||
gdg agf gdc|BfA GFE F2g|gdg agf gd^c|dge fga g2d|
[M:6/8]gab agf|gfd dcA|[M:9/8]BfA GFE F2^F|GAB B=Bc dgf|dcA BA^F G2D:|

